src/assets/Group 1597883370 (1).svg

<svg width="100" height="115" viewBox="0 0 100 115" fill="none" xmlns="http://www.w3.org/2000/svg">
<path d="M49.8164 0.763672C68.9226 0.763672 84.4119 16.2522 84.4121 35.3584C84.4121 54.4648 68.9228 69.9541 49.8164 69.9541C30.7102 69.9538 15.2217 54.4646 15.2217 35.3584C15.2219 16.2524 30.7104 0.763923 49.8164 0.763672ZM49.8174 19.2139C40.9012 19.2139 33.673 26.4422 33.6729 35.3584C33.6729 44.2747 40.9011 51.5029 49.8174 51.5029C58.7335 51.5027 65.9619 44.2746 65.9619 35.3584C65.9618 26.4423 58.7334 19.2141 49.8174 19.2139Z" fill="#00AACB"/>
<circle cx="49.8172" cy="35.3592" r="9.22538" fill="#00AACB"/>
<path d="M22.1406 69.9541C34.3686 69.9541 44.2821 79.8668 44.2822 92.0947C44.2822 104.323 34.3687 114.236 22.1406 114.236C9.91267 114.236 0 104.323 0 92.0947C0.000159772 79.8669 9.91277 69.9543 22.1406 69.9541ZM22.1406 81.7627C16.4343 81.7627 11.8088 86.3884 11.8086 92.0947C11.8086 97.8012 16.4342 102.428 22.1406 102.428C27.847 102.428 32.4727 97.8011 32.4727 92.0947C32.4725 86.3885 27.8469 81.7627 22.1406 81.7627Z" fill="#00AACB"/>
<circle cx="22.1406" cy="92.0956" r="5.90425" fill="#00AACB"/>
<path d="M77.4922 69.9541C89.7202 69.9541 99.6336 79.8668 99.6338 92.0947C99.6338 104.323 89.7203 114.236 77.4922 114.236C65.2642 114.236 55.3516 104.323 55.3516 92.0947C55.3517 79.8669 65.2643 69.9543 77.4922 69.9541ZM77.4922 81.7627C71.7859 81.7627 67.1603 86.3884 67.1602 92.0947C67.1602 97.8012 71.7857 102.428 77.4922 102.428C83.1986 102.428 87.8242 97.8012 87.8242 92.0947C87.824 86.3884 83.1985 81.7627 77.4922 81.7627Z" fill="#00AACB"/>
<circle cx="77.4931" cy="92.0956" r="5.90425" fill="#00AACB"/>
</svg>

<svg xmlns="http://www.w3.org/2000/svg" width="100" height="115" fill="none" viewBox="0 0 100 115"><path fill="#00aacb" d="M49.816.764c19.107 0 34.596 15.488 34.596 34.594s-15.49 34.596-34.596 34.596-34.594-15.49-34.594-34.596S30.71.764 49.816.764m.001 18.45c-8.916 0-16.144 7.228-16.144 16.144 0 8.917 7.228 16.145 16.144 16.145 8.917 0 16.145-7.228 16.145-16.145s-7.229-16.144-16.145-16.144"/><circle cx="49.817" cy="35.359" r="9.225" fill="#00aacb"/><path fill="#00aacb" d="M22.14 69.954c12.229 0 22.142 9.913 22.142 22.14 0 12.229-9.913 22.142-22.141 22.142S0 104.323 0 92.095s9.913-22.14 22.14-22.14m0 11.809c-5.706 0-10.331 4.625-10.331 10.332 0 5.706 4.625 10.333 10.332 10.333 5.706 0 10.332-4.627 10.332-10.333S27.847 81.763 22.14 81.763"/><circle cx="22.141" cy="92.096" r="5.904" fill="#00aacb"/><path fill="#00aacb" d="M77.492 69.954c12.228 0 22.142 9.913 22.142 22.14 0 12.229-9.914 22.142-22.142 22.142s-22.14-9.913-22.14-22.141 9.912-22.14 22.14-22.14m0 11.809c-5.706 0-10.332 4.625-10.332 10.332 0 5.706 4.626 10.333 10.332 10.333s10.332-4.627 10.332-10.333-4.626-10.332-10.332-10.332"/><circle cx="77.493" cy="92.096" r="5.904" fill="#00aacb"/></svg>
